X:1
T: Madeira Dream
N:11 March 2004
C:
S:to the tune: "Godesses"
A:
O:
R:
M:2/2
K:Gm
I:speed 180
%W:    A
% voice 1 (1 lines, 18 notes)
K:Gm
M:2/2
L:1/16
G4 |G4 |B4 |A2 G2 |A4 |A4 |c4 |B2 A2 |G4 |G4 |B4 |A2 G2 |d4 |d4 |d8 |
%W:
% voice 1 (1 lines, 18 notes)
G4 |G4 |B4 |A2 G2 |A4 |A4 |c4 |B2 A2 |G4 |G4 |B4 |A2 G2 |d4 |d4 |d8 |
%W:    B
% voice 1 (1 lines, 15 notes)
f4 |d4 |B6 |d2 c4 |A4 |F6 |A2 B4 |G4 |F6 |A2 G4 |G4 |G8 |
%W:
% voice 1 (1 lines, 15 notes)
f4 |d4 |B6 |d2 c4 |A4 |F6 |A2 B4 |G4 |F6 |A2 G4 |G4 |G8 ||
